icon/lg/rescript-icon.svg

<?xml version="1.0" encoding="UTF-8"?>
<svg viewBox="0 0 256 256" version="1.1" xmlns="http://www.w3.org/2000/svg" xmlns:xlink="http://www.w3.org/1999/xlink" preserveAspectRatio="xMidYMid" height="1em" width="1em">
  <g>
    <path d="M247.286123,18.7650117 C244.462828,14.9093699 241.055605,11.517528 237.187229,8.71170659 C225.227899,0 208.145313,0 173.982311,0 L81.96993,0 C47.809099,0 30.7286835,0 18.7650117,8.71170659 C14.9011548,11.5075016 11.5075016,14.9011548 8.71170659,18.7650117 C0,30.7265126 0,47.8069281 0,82.0155183 L0,173.982311 C0,208.143142 0,225.214874 8.71170659,237.187229 C11.517528,241.055605 14.9093699,244.462828 18.7650117,247.286123 C30.7265126,256 47.8069281,256 81.96993,256 L173.982311,256 C208.143142,256 225.214874,256 237.187229,247.286123 C241.046359,244.451642 244.451642,241.046359 247.286123,237.187229 C256,225.227899 256,208.145313 256,173.982311 L256,82.0155183 C255.989146,47.8069281 255.989146,30.7265126 247.286123,18.7650117 Z M118.553453,174.123417 C118.553453,182.129591 118.553453,186.178266 117.250931,189.341225 C115.503635,193.55471 112.155719,196.902625 107.942234,198.649922 C104.777104,199.952444 100.778359,199.952444 92.7222557,199.952444 C84.7160823,199.952444 80.6674073,199.952444 77.5044477,198.649922 C73.2909627,196.902625 69.9430476,193.55471 68.1957515,189.341225 C66.8932287,186.178266 66.8932287,182.129591 66.8932287,174.123417 L66.8932287,89.6960611 C66.8932287,80.013975 66.8932287,75.1751028 68.7558363,71.4998177 C70.4158936,68.2574844 73.0534172,65.6192014 76.2952724,63.9582107 C79.9640449,62.097774 84.8137715,62.097774 94.4480984,62.097774 L118.557795,62.097774 L118.553453,174.123417 Z M173.476498,123.895968 C156.69135,123.895968 143.084299,110.288917 143.084299,93.5037693 C143.084299,76.7186216 156.69135,63.1115709 173.476498,63.1115709 C190.261645,63.1115709 203.868704,76.7186216 203.868704,93.5037693 L203.868704,93.5037693 C203.874456,101.558901 200.679941,109.286371 194.987971,114.986076 C189.296,120.685782 181.572876,123.890788 173.517744,123.895968 L173.476498,123.895968 Z" fill="#D44140"/>
  </g>
</svg>

<svg width="256" height="256" xmlns="http://www.w3.org/2000/svg" preserveAspectRatio="xMidYMid"><path d="M247.286 18.765a45.97 45.97 0 0 0-10.099-10.053C225.227 0 208.145 0 173.982 0H81.97C47.81 0 30.729 0 18.765 8.712A44.891 44.891 0 0 0 8.712 18.765C0 30.727 0 47.807 0 82.015v91.967c0 34.161 0 51.233 8.712 63.205a45.97 45.97 0 0 0 10.053 10.1C30.727 256 47.807 256 81.97 256h92.012c34.161 0 51.233 0 63.205-8.714a47.193 47.193 0 0 0 10.1-10.099C256 225.227 256 208.145 256 173.982V82.016c-.01-34.21-.01-51.29-8.714-63.251ZM118.553 174.123c0 8.007 0 12.055-1.302 15.218a17.217 17.217 0 0 1-9.309 9.309c-3.165 1.302-7.164 1.302-15.22 1.302-8.006 0-12.055 0-15.218-1.302a17.217 17.217 0 0 1-9.308-9.309c-1.303-3.163-1.303-7.211-1.303-15.218V89.696c0-9.682 0-14.52 1.863-18.196a17.367 17.367 0 0 1 7.54-7.542c3.668-1.86 8.518-1.86 18.152-1.86h24.11l-.005 112.025Zm54.923-50.227c-16.785 0-30.392-13.607-30.392-30.392s13.607-30.392 30.392-30.392c16.786 0 30.393 13.607 30.393 30.392a30.37 30.37 0 0 1-30.351 30.392h-.042Z" fill="#D44140"/></svg>
